legacy/src/svg/side/side_05.svg

<svg width="160" height="160" viewBox="0 0 160 160" fill="none" xmlns="http://www.w3.org/2000/svg">
<path d="M124.598 80.7002C124.598 80.7002 144.598 81.0002 143.198 68.2002C143.198 68.2002 152.798 79.3002 144.198 89.1002C135.598 98.9002 116.898 95.2002 116.898 95.2002L124.598 80.7002Z" fill="white"/>
<path d="M143.198 68.2002C143.498 81.9002 122.998 80.3002 122.998 80.3002L121.798 86.0002L116.898 95.2002C116.898 95.2002 135.598 98.8002 144.198 89.1002C152.798 79.4002 143.198 68.2002 143.198 68.2002Z" fill="white"/>
<path opacity="0.1" d="M143.198 68.2002C151.598 90.6002 121.498 87.6002 121.498 87.6002L121.798 85.9002L116.898 95.1002C116.898 95.1002 135.598 98.7002 144.198 89.0002C152.798 79.3002 143.198 68.2002 143.198 68.2002Z" fill="black"/>
<path d="M118.501 75C118.501 75 125.601 76 125.801 86.2C126.001 96.4 114.801 98 114.801 98C118.312 90.8777 119.601 82.8642 118.501 75Z" fill="black"/>
<path d="M38.1993 78.1001L47.7993 74.1001C47.7993 74.1001 56.3993 75.0001 57.2993 85.5001C58.1993 96.0001 51.7993 98.4001 51.7993 98.4001L41.4993 98.6001C41.4993 98.6001 36.9993 95.5001 36.2993 87.3001C35.5993 79.1001 38.1993 78.1001 38.1993 78.1001Z" fill="black"/>
<path opacity="0.1" d="M38.1984 78.0996L47.7984 74.0996C52.7984 75.5996 56.7984 78.3996 57.2984 85.4996C56.4984 83.8996 54.9984 83.1996 52.7984 83.2996L47.9984 84.3996L42.2984 85.7996L36.3984 87.1996C36.7984 82.1996 36.2984 79.8996 38.1984 78.0996Z" fill="white"/>
<path opacity="0.16" d="M42.7276 97.2702C45.425 97.0531 47.285 92.8161 46.882 87.8065C46.4789 82.7969 43.9654 78.9118 41.2679 79.1288C38.5705 79.3458 36.7105 83.5829 37.1135 88.5925C37.5166 93.6021 40.0301 97.4872 42.7276 97.2702Z" fill="white"/>
<path d="M41.6985 80.5998C41.6985 80.5998 26.0985 82.6998 21.6985 77.6998C17.2985 72.6998 21.4985 63.7998 21.4985 63.7998C21.4985 63.7998 10.3985 70.1998 11.4985 82.7998C12.5985 95.3998 36.4985 96.5998 41.7985 95.1998C41.7985 95.1998 45.3985 93.3998 45.0985 87.6998C45.0985 81.8998 41.6985 80.5998 41.6985 80.5998Z" fill="white"/>
<path opacity="0.3" d="M44.9985 87.6999C29.0985 91.4999 5.1986 85.0999 21.4985 63.8999C21.4985 63.8999 10.3985 70.2999 11.4985 82.8999C12.5985 95.4999 36.4985 96.6999 41.7985 95.2999C41.7985 95.2999 45.3985 93.4999 44.9985 87.6999Z" fill="black"/>
</svg>

<svg xmlns="http://www.w3.org/2000/svg" viewBox="0 0 160 160">
  <path d="M124.6 80.7s20 .3 18.6-12.5c0 0 9.6 11.1 1 20.9s-27.3 6.1-27.3 6.1l7.7-14.5z" fill="#fff"/>
  <path d="M143.2 68.2c.3 13.7-20.2 12.1-20.2 12.1l-1.2 5.7-4.9 9.2s18.7 3.6 27.3-6.1-1-20.9-1-20.9z" fill="#fff"/>
  <path d="M143.2 68.2c8.4 22.4-21.7 19.4-21.7 19.4l.3-1.7-4.9 9.2s18.7 3.6 27.3-6.1-1-20.8-1-20.8z" opacity=".1"/>
  <path d="M118.5 75s7.1 1 7.3 11.2-11 11.8-11 11.8a39.6 39.6 0 003.7-23z"/>
  <path d="M38.2 78.1l9.6-4s8.6.9 9.5 11.4-5.5 12.9-5.5 12.9l-10.3.2s-4.5-3.1-5.2-11.3 1.9-9.2 1.9-9.2z"/>
  <g fill="#fff">
    <path d="M38.2 78.1l9.6-4c5 1.5 9 4.3 9.5 11.4-.8-1.6-2.3-2.3-4.5-2.2L48 84.4l-5.7 1.4-5.9 1.4c.4-5-.1-7.3 1.8-9.1z" opacity=".1"/>
    <ellipse transform="rotate(-4.6 42 88.2)" cx="42" cy="88.2" rx="4.9" ry="9.1" opacity=".16"/>
    <path d="M41.7 80.6s-15.6 2.1-20-2.9-.2-13.9-.2-13.9-11.1 6.4-10 19 25 13.8 30.3 12.4c0 0 3.6-1.8 3.3-7.5 0-5.8-3.4-7.1-3.4-7.1z"/>
    <path d="M41.7 80.6s-15.6 2.1-20-2.9-.2-13.9-.2-13.9-11.1 6.4-10 19 25 13.8 30.3 12.4c0 0 3.6-1.8 3.3-7.5 0-5.8-3.4-7.1-3.4-7.1z" opacity=".3"/>
  </g>
  <path d="M45 87.7c-15.9 3.8-39.8-2.6-23.5-23.8 0 0-11.1 6.4-10 19s25 13.8 30.3 12.4c0 0 3.6-1.8 3.2-7.6z" opacity=".3"/>
</svg>
